X:3105
T:Autumn in Appin
P:The Hills of Lorne
C:Charlie Hunter
R:Strathspey (4x32) 2 chords
B:RSCDS 31-5
Z:Anselm Lingnau <anselm@strathspey.org>
M:4/4
L:1/8
K:D
"A7"FE|"D"D2FG A2"Bm"d2|"A7"f3e "D"d2"D7"A2|"G"B3d "D"A2F2|"Em"E2GF "A7"E2FE|
       "D"D2FG A2"Bm"d2|"F#7"f3e "Bm"d2"D7"A2|"G"B2"Em"gB "A7"A2c2|"D"d6||
"A7"ag|"D"f2ed "G"B2cd|"D"A3"A7"xF"D"A2"A7"ag|"D"f2ed "Bm"A2df|"Em"e4-"A7"e2fe|
       "D"d2ef "D7"A2dc|"G"B2d2 "Em"g2"A7"ag|"D"f2ed "A7"A2c2|"D"d6|]

